X: 25923
T: Maudabawn Chapel
R: reel
M: 4/4
K: Gmajor
|:G2DG EGDB,|G,A,B,D EB,DB,|G,A,B,D GA B/c/d|gabg ea a2|
gabg eage|dged Bc d2|e/f/g fa gedB|AcBA GEED:|
|:E2BE dEBE|E2BE AFDF|E2EF GFGB|A2FA DAFA|
EBBA B^cdA|BA^GB ABde|f2af gfe^c|dBAF GEED:|

